X: 0
T: O Little Town Of Bethlehem
Z: A. F. M. Cunstance
Z: Copyright © 2003 by Douglas D. Anderson
Z: Released To The Public Domain
L: 1/4
M: 6/8
Q: 1/4=90
V: P1 name="Staff"
%%MIDI program 1 19
K: G
[V: P1]  D/ | B B/ (d/c/) B/ | A A/ G G/ | c c/ d c/ | (B3/ B) G/ | B B/ B F/ | A A/ G B/ | A (d/A/) B/ ^c/ | (d3/ d) D/ | d d/ (d A/) d/ | d3/ d =c/ | B B/ B A/ | (G3/ G) G/ | G E/ (D/G/) B/ | d d/ c B/ | G G/ (D/E/) F/ | (G3/ G)|]
w: O lit- tle town_ of Beth- le hem, how still we see thee lie!_ A- bove thy deep and dream- less sleep the si- lent_ stars go by._ Yet in thy dark_ streets shine- th the ev- er last ing Light;_ The hopes and fears_ of all the years are met in thee_ to- night._

